**harm	**harte	**silbe	**rhyme	**timestamp	**phrase	**leadinstrument	**kern
*M4/4	*M4/4	*	*	*	*	*	*
*	*	*	*	*	*	*	*
*	*	*	*	*	*	*	*
*e:	*e:	*	*	*e:	*e:	*e:	*e:
*	*	*	*	*	*	*	*
*	*	*	*	*	*	*	*
1r;	N	.	.	0	.	r	1r;
1r;	N	.	.	0.37	.	r	1r;
=1	=1	=1	=1	=1	=1	=1	=1
*>Letter>B	*>Letter>B	*>Letter>B	*>Letter>B	*>Letter>B	*>Letter>B	*>Letter>B	*>Letter>B
*>Label>Intro	*>Label>Intro	*>Label>Intro	*>Label>Intro	*>Label>Intro	*>Label>Intro	*>Label>Intro	*>Label>Intro
1i	E:min	.	.	14.499	newline	organ	1E 1g 1b
=2	=2	=2	=2	=2	=2	=2	=2
1i	E:min	.	.	16.78	.	organ	1E 1g 1b
=3	=3	=3	=3	=3	=3	=3	=3
1i	E:min	.	.	19.06	.	organ	1E 1g 1b
=4	=4	=4	=4	=4	=4	=4	=4
1i	E:min	.	.	21.34	.	organ	1E 1g 1b
=5	=5	=5	=5	=5	=5	=5	=5
1i	E:min	.	.	23.62	.	organ	1E 1g 1b
=6	=6	=6	=6	=6	=6	=6	=6
1i	E:min	.	.	25.901	.	organ	1E 1g 1b
=7	=7	=7	=7	=7	=7	=7	=7
1i	E:min	.	.	28.181	.	organ	1E 1g 1b
=8	=8	=8	=8	=8	=8	=8	=8
1i	E:min	.	.	30.461	.	organ	1E 1g 1b
=9	=9	=9	=9	=9	=9	=9	=9
1i	E:min	.	.	32.741	newline	organ	1E 1g 1b
=10	=10	=10	=10	=10	=10	=10	=10
2.i	E:min	.	.	35.025	.	organ	1E 1g 1b
4-VIIe	D:maj/2	.	.	36.738	.	organ	4D 4f# 4a
=11	=11	=11	=11	=11	=11	=11	=11
2.i	E:min	.	.	37.308	.	organ	1E 1g 1b
4-VIIe	D:maj/2	.	.	39.021	.	organ	4D 4f# 4a
=12	=12	=12	=12	=12	=12	=12	=12
2.i	E:min	.	.	39.592	.	organ	1E 1g 1b
4-VIIe	D:maj/2	.	.	41.305	.	organ	4D 4f# 4a
=13	=13	=13	=13	=13	=13	=13	=13
2.i	E:min	.	.	41.876	.	organ	1E 1g 1b
4-VIIe	D:maj/2	.	.	43.588	.	organ	4D 4f# 4a
=14	=14	=14	=14	=14	=14	=14	=14
*>Letter>A	*>Letter>A	*>Letter>A	*>Letter>A	*>Letter>A	*>Letter>A	*>Letter>A	*>Letter>A
*>Label>Chorus	*>Label>Chorus	*>Label>Chorus	*>Label>Chorus	*>Label>Chorus	*>Label>Chorus	*>Label>Chorus	*>Label>Chorus
2.i	E:min	Rid-	.	44.159	newline	voice	1E 1g 1b
.	.	-ers	.	.	.	.	.
.	.	on	.	.	.	.	.
.	.	the	.	.	.	.	.
.	.	storm	A	.	.	.	.
4-VIIe	D:maj/2	.	.	45.903	.	voice	4D 4f# 4a
=15	=15	=15	=15	=15	=15	=15	=15
2.i	E:min	.	.	46.484	.	voice	1E 1g 1b
4-VIIe	D:maj/2	.	.	48.228	.	voice	4D 4f# 4a
=16	=16	=16	=16	=16	=16	=16	=16
2.i	E:min	Rid-	.	48.809	.	voice	1E 1g 1b
.	.	-ers	.	.	.	.	.
.	.	on	.	.	.	.	.
.	.	the	.	.	.	.	.
.	.	storm	A	.	.	.	.
4-VIIe	D:maj/2	.	.	50.553	.	voice	4D 4f# 4a
=17	=17	=17	=17	=17	=17	=17	=17
1i	E:min	.	.	51.134	.	voice	1E 1g 1b
.	.	.	.	.	.	.	.
.	.	.	.	.	.	.	.
.	.	In-	.	.	.	.	.
=18	=18	=18	=18	=18	=18	=18	=18
2iv	A:min	-to	.	53.459	newline	voice	2A 2cc 2ee
.	.	this	.	.	.	.	.
.	.	house	.	.	.	.	.
.	.	we're	.	.	.	.	.
2vd	B:min/b7	born	A	54.631	.	voice	2b 2dd 2ff#
=19	=19	=19	=19	=19	=19	=19	=19
2-VIg	C:maj/6	.	.	55.802	.	voice	2C- 2e- 2g-
2-VIIc	D:maj/5	.	.	56.973	.	voice	2d 2f# 2A
.	.	.	.	.	.	.	.
.	.	In-	.	.	.	.	.
=20	=20	=20	=20	=20	=20	=20	=20
2.i	E:min	-to	.	58.145	newline	voice	1E 1g 1b
.	.	this	.	.	.	.	.
.	.	world	.	.	.	.	.
.	.	we're	.	.	.	.	.
.	.	thrown	B	.	.	.	.
4-VIIe	D:maj/2	.	.	59.883	.	voice	4D 4f# 4a
=21	=21	=21	=21	=21	=21	=21	=21
2.i	E:min	.	.	60.463	.	voice	2.E 2.g 2.b
4-VIIe	D:maj/2	Like	.	62.201	.	voice	4D 4f# 4a
.	.	a	.	.	.	.	.
=22	=22	=22	=22	=22	=22	=22	=22
4-III7c	G:maj7/5	dog	.	62.781	newline	voice	4g- 4b- 4D- 4f#
.	.	with-	.	.	.	.	.
2.-VII	D:maj	-out	.	63.377	.	voice	2.D 2.f# 2.a
.	.	a	.	.	.	.	.
.	.	bone	B	.	.	.	.
.	.	an	.	.	.	.	.
=23	=23	=23	=23	=23	=23	=23	=23
4-VII	D:maj	ac-	.	65.166	.	voice	4D 4f# 4a
.	.	-tor	.	.	.	.	.
2.-VI	C:maj	out	.	65.762	.	voice	2.C- 2.e- 2.g-
.	.	on	.	.	.	.	.
.	.	loan	B	.	.	.	.
.	.	.	.	.	.	.	.
=24	=24	=24	=24	=24	=24	=24	=24
2i	E:min	Rid-	.	67.551	newline	voice	2E 2g 2b
.	.	-ers	.	.	.	.	.
.	.	on	.	.	.	.	.
.	.	the	.	.	.	.	.
2iid	F#:min/b7	storm	A	68.732	.	voice	2f# 2a 2cc#
=25	=25	=25	=25	=25	=25	=25	=25
2-IIIg	G:maj/6	.	.	69.912	.	voice	2G- 2b- 2dd-
2iid	F#:min/b7	.	.	71.093	.	voice	2f# 2a 2cc#
.	.	There's	.	.	.	.	.
.	.	a	.	.	.	.	.
=26	=26	=26	=26	=26	=26	=26	=26
*>Letter>A	*>Letter>A	*>Letter>A	*>Letter>A	*>Letter>A	*>Letter>A	*>Letter>A	*>Letter>A
*>Label>Verse	*>Label>Verse	*>Label>Verse	*>Label>Verse	*>Label>Verse	*>Label>Verse	*>Label>Verse	*>Label>Verse
2i	E:min	kill-	.	72.273	newline	voice	2E 2g 2b
.	.	-er	.	.	.	.	.
.	.	on	.	.	.	.	.
.	.	the	.	.	.	.	.
2iid	F#:min/b7	road	B	73.474	.	voice	2f# 2a 2cc#
=27	=27	=27	=27	=27	=27	=27	=27
2-IIIg	G:maj/6	.	.	74.676	.	voice	2G- 2b- 2dd-
2iid	F#:min/b7	.	.	75.877	.	voice	2f# 2a 2cc#
.	.	His	.	.	.	.	.
.	.	brain	.	.	.	.	.
.	.	is	.	.	.	.	.
=28	=28	=28	=28	=28	=28	=28	=28
2i	E:min	squirm-	.	77.079	newline	voice	2E 2g 2b
.	.	-in'	.	.	.	.	.
.	.	like	.	.	.	.	.
.	.	a	.	.	.	.	.
2iid	F#:min/b7	toad	B	78.219	.	voice	2f# 2a 2cc#
=29	=29	=29	=29	=29	=29	=29	=29
2-IIIg	G:maj/6	.	.	79.36	.	voice	2G- 2b- 2dd-
2iid	F#:min/b7	.	.	80.5	.	voice	2f# 2a 2cc#
.	.	Take	.	.	.	.	.
=30	=30	=30	=30	=30	=30	=30	=30
2iv	A:min	a	.	81.641	newline	voice	2A 2cc 2ee
.	.	long	.	.	.	.	.
.	.	ho-	.	.	.	.	.
.	.	-li-	.	.	.	.	.
2vd	B:min/b7	-day	C	82.832	.	voice	2b 2dd 2ff#
=31	=31	=31	=31	=31	=31	=31	=31
2-VIg	C:maj/6	.	.	84.023	.	voice	1C- 1e- 1g-
2-VIIc	D:maj/5	.	.	85.214	.	voice	2d 2f# 2A
=32	=32	=32	=32	=32	=32	=32	=32
2i	E:min	Let	.	86.405	newline	voice	2E 2g 2b
.	.	your	.	.	.	.	.
.	.	chil-	.	.	.	.	.
.	.	-dren	.	.	.	.	.
2-VIIe	D:maj/2	play	C	87.601	.	voice	2D 2f# 2a
.	.	.	.	.	.	.	.
=33	=33	=33	=33	=33	=33	=33	=33
2i	E:min	.	.	88.798	.	voice	2E 2g 2b
2-VIIe	D:maj/2	.	.	89.994	.	voice	2D 2f# 2a
.	.	If	.	.	.	.	.
.	.	ya	.	.	.	.	.
=34	=34	=34	=34	=34	=34	=34	=34
4-III7c	G:maj7/5	give	.	91.19	newline	voice	4g- 4b- 4D- 4f#
.	.	this	.	.	.	.	.
2.-VII	D:maj	man	.	91.786	.	voice	2.D 2.f# 2.a
.	.	a	.	.	.	.	.
.	.	ride	D	.	.	.	.
.	.	Sweet	.	.	.	.	.
.	.	.	.	.	.	.	.
=35	=35	=35	=35	=35	=35	=35	=35
4-VII	D:maj	fa-	.	93.574	.	voice	4D 4f# 4a
.	.	-mi-	.	.	.	.	.
2.-VI	C:maj	-ly	.	94.169	.	voice	2.C- 2.e- 2.g-
.	.	will	.	.	.	.	.
.	.	die	D	.	.	.	.
.	.	.	.	.	.	.	.
=36	=36	=36	=36	=36	=36	=36	=36
2i	E:min	Kill-	.	95.957	.	voice	2E 2g 2b
.	.	-er	.	.	.	.	.
.	.	on	.	.	.	.	.
.	.	the	.	.	.	.	.
2-VIIe	D:maj/2	road	B	97.149	.	voice	2D 2f# 2a
=37	=37	=37	=37	=37	=37	=37	=37
2i	E:min	.	.	98.34	.	voice	1E 1g 1b
.	.	Yeah	.	.	.	.	.
2-VIIe	D:maj/2	.	.	99.532	.	voice	2D 2f# 2a
=38	=38	=38	=38	=38	=38	=38	=38
*>Letter>A	*>Letter>A	*>Letter>A	*>Letter>A	*>Letter>A	*>Letter>A	*>Letter>A	*>Letter>A
*>Label>Solo	*>Label>Solo	*>Label>Solo	*>Label>Solo	*>Label>Solo	*>Label>Solo	*>Label>Solo	*>Label>Solo
1i	E:min	.	.	100.724	newline	organ	1E 1g 1b
=39	=39	=39	=39	=39	=39	=39	=39
1i	E:min	.	.	103.038	.	organ	1E 1g 1b
=40	=40	=40	=40	=40	=40	=40	=40
1i	E:min	.	.	105.353	.	organ	1E 1g 1b
=41	=41	=41	=41	=41	=41	=41	=41
1i	E:min	.	.	107.667	.	organ	1E 1g 1b
=42	=42	=42	=42	=42	=42	=42	=42
2iv	A:min	.	.	109.981	newline	organ	1A 1cc 1ee
2vd	B:min/b7	.	.	111.15	.	organ	2b 2dd 2ff#
=43	=43	=43	=43	=43	=43	=43	=43
2-VIg	C:maj/6	.	.	112.319	.	organ	1C- 1e- 1g-
2-VIIc	D:maj/5	.	.	113.488	.	organ	2d 2f# 2A
=44	=44	=44	=44	=44	=44	=44	=44
2.i	E:min	.	.	114.657	newline	organ	1E 1g 1b
4-VIIe	D:maj/2	.	.	116.415	.	organ	4D 4f# 4a
=45	=45	=45	=45	=45	=45	=45	=45
2.i	E:min	.	.	117.001	.	organ	1E 1g 1b
4-VIIe	D:maj/2	.	.	118.759	.	organ	4D 4f# 4a
=46	=46	=46	=46	=46	=46	=46	=46
4-III7c	G:maj7/5	.	.	119.345	newline	organ	1g- 1b- 1D- 1f#
2.-VII	D:maj	.	.	119.928	.	organ	2D 2f# 2a
=47	=47	=47	=47	=47	=47	=47	=47
4-VII	D:maj	.	.	121.678	.	organ	1D 1f# 1a
2.-VI	C:maj	.	.	122.261	.	organ	2C- 2e- 2g-
=48	=48	=48	=48	=48	=48	=48	=48
2i	E:min	.	.	124.011	newline	organ	1E 1g 1b
2iid	F#:min/b7	.	.	125.188	.	organ	2f# 2a 2cc#
=49	=49	=49	=49	=49	=49	=49	=49
2-IIIg	G:maj/6	.	.	126.365	.	organ	1G- 1b- 1dd-
2iid	F#:min/b7	.	.	127.543	.	organ	2f# 2a 2cc#
=50	=50	=50	=50	=50	=50	=50	=50
2i	E:min	.	.	128.72	newline	organ	1E 1g 1b
2iid	F#:min/b7	.	.	129.912	.	organ	2f# 2a 2cc#
=51	=51	=51	=51	=51	=51	=51	=51
2-IIIg	G:maj/6	.	.	131.105	.	organ	2G- 2b- 2dd-
2iid	F#:min/b7	.	.	132.298	.	organ	2f# 2a 2cc#
.	.	Girl	.	.	.	.	.
.	.	you	.	.	.	.	.
=52	=52	=52	=52	=52	=52	=52	=52
*>Letter>A	*>Letter>A	*>Letter>A	*>Letter>A	*>Letter>A	*>Letter>A	*>Letter>A	*>Letter>A
*>Label>Verse	*>Label>Verse	*>Label>Verse	*>Label>Verse	*>Label>Verse	*>Label>Verse	*>Label>Verse	*>Label>Verse
2i	E:min	got-	.	133.49	newline	voice	2E 2g 2b
.	.	-ta	.	.	.	.	.
.	.	love	.	.	.	.	.
.	.	your	.	.	.	.	.
2iid	F#:min/b7	man	E	134.663	.	voice	2f# 2a 2cc#
.	.	.	.	.	.	.	.
=53	=53	=53	=53	=53	=53	=53	=53
2-IIIg	G:maj/6	.	.	135.836	.	voice	2G- 2b- 2dd-
2iid	F#:min/b7	.	.	137.008	.	voice	2f# 2a 2cc#
.	.	Girl	.	.	.	.	.
.	.	you	.	.	.	.	.
=54	=54	=54	=54	=54	=54	=54	=54
2i	E:min	got-	.	138.181	newline	voice	2E 2g 2b
.	.	-ta	.	.	.	.	.
.	.	love	.	.	.	.	.
.	.	your	.	.	.	.	.
2iid	F#:min/b7	man	E	139.383	.	voice	2f# 2a 2cc#
.	.	.	.	.	.	.	.
=55	=55	=55	=55	=55	=55	=55	=55
2-IIIg	G:maj/6	.	.	140.585	.	voice	1G- 1b- 1dd-
2iid	F#:min/b7	.	.	141.787	.	voice	2f# 2a 2cc#
=56	=56	=56	=56	=56	=56	=56	=56
2iv	A:min	Take	.	142.988	newline	voice	2A 2cc 2ee
.	.	him	.	.	.	.	.
.	.	by	.	.	.	.	.
.	.	the	.	.	.	.	.
2vd	B:min/b7	hand	E	144.187	.	voice	2b 2dd 2ff#
=57	=57	=57	=57	=57	=57	=57	=57
2-VIg	C:maj/6	.	.	145.385	.	voice	1C- 1e- 1g-
2-VIIc	D:maj/5	.	.	146.583	.	voice	2d 2f# 2A
=58	=58	=58	=58	=58	=58	=58	=58
2i	E:min	Make	.	147.781	newline	voice	2E 2g 2b
.	.	him	.	.	.	.	.
.	.	un-	.	.	.	.	.
.	.	-der-	.	.	.	.	.
2iid	F#:min/b7	-stand	E	148.974	.	voice	2f# 2a 2cc#
=59	=59	=59	=59	=59	=59	=59	=59
2-IIIg	G:maj/6	.	.	150.167	.	voice	2G- 2b- 2dd-
2iid	F#:min/b7	.	.	151.36	.	voice	2f# 2a 2cc#
.	.	The	.	.	.	.	.
=60	=60	=60	=60	=60	=60	=60	=60
4-III7c	G:maj7/5	world	.	152.553	newline	voice	4g- 4b- 4D- 4f#
.	.	on	.	.	.	.	.
2.-VII	D:maj	you	.	153.14	.	voice	2.D 2.f# 2.a
.	.	de-	.	.	.	.	.
.	.	-pends	F	.	.	.	.
.	.	Our	.	.	.	.	.
=61	=61	=61	=61	=61	=61	=61	=61
4-VII	D:maj	life	.	154.9	.	voice	4D 4f# 4a
.	.	will	.	.	.	.	.
2.-VI	C:maj	ne-	.	155.486	.	voice	2.C- 2.e- 2.g-
.	.	-ver	.	.	.	.	.
.	.	end	F	.	.	.	.
.	.	.	.	.	.	.	.
=62	=62	=62	=62	=62	=62	=62	=62
2i	E:min	Got-	.	157.246	newline	voice	2E 2g 2b
.	.	-ta	.	.	.	.	.
.	.	love	.	.	.	.	.
.	.	your	.	.	.	.	.
2iid	F#:min/b7	man	E	158.408	.	voice	2f# 2a 2cc#
=63	=63	=63	=63	=63	=63	=63	=63
2-IIIg	G:maj/6	.	.	159.569	.	voice	2.G- 2.b- 2.dd-
.	.	Yeah	.	.	.	.	.
2iid	F#:min/b7	.	.	160.731	.	voice	4f# 4a 4cc#
.	.	.	.	.	.	.	.
=64	=64	=64	=64	=64	=64	=64	=64
*>Letter>B	*>Letter>B	*>Letter>B	*>Letter>B	*>Letter>B	*>Letter>B	*>Letter>B	*>Letter>B
*>Label>Solo	*>Label>Solo	*>Label>Solo	*>Label>Solo	*>Label>Solo	*>Label>Solo	*>Label>Solo	*>Label>Solo
1i	E:min	.	.	161.893	newline	organ	1E 1g 1b
=65	=65	=65	=65	=65	=65	=65	=65
1i	E:min	.	.	164.135	.	organ	1E 1g 1b
=66	=66	=66	=66	=66	=66	=66	=66
1i	E:min	.	.	166.378	.	organ	1E 1g 1b
=67	=67	=67	=67	=67	=67	=67	=67
1i	E:min	.	.	168.621	.	organ	1E 1g 1b
=68	=68	=68	=68	=68	=68	=68	=68
1i	E:min	.	.	170.864	.	organ	1E 1g 1b
=69	=69	=69	=69	=69	=69	=69	=69
1i	E:min	.	.	173.107	.	organ	1E 1g 1b
=70	=70	=70	=70	=70	=70	=70	=70
1i	E:min	.	.	175.35	.	organ	1E 1g 1b
=71	=71	=71	=71	=71	=71	=71	=71
1i	E:min	.	.	177.593	.	organ	1E 1g 1b
=72	=72	=72	=72	=72	=72	=72	=72
1i	E:min	.	.	179.836	.	organ	1E 1g 1b
=73	=73	=73	=73	=73	=73	=73	=73
1i	E:min	.	.	182.079	.	organ	1E 1g 1b
=74	=74	=74	=74	=74	=74	=74	=74
1i	E:min	.	.	184.322	.	organ	1E 1g 1b
=75	=75	=75	=75	=75	=75	=75	=75
1i	E:min	.	.	186.565	.	organ	1E 1g 1b
=76	=76	=76	=76	=76	=76	=76	=76
1i	E:min	.	.	188.808	.	organ	1E 1g 1b
=77	=77	=77	=77	=77	=77	=77	=77
1i	E:min	.	.	191.051	.	organ	1E 1g 1b
=78	=78	=78	=78	=78	=78	=78	=78
1i	E:min	.	.	193.294	.	organ	1E 1g 1b
=79	=79	=79	=79	=79	=79	=79	=79
1i	E:min	.	.	195.537	.	organ	1E 1g 1b
=80	=80	=80	=80	=80	=80	=80	=80
1i	E:min	.	.	197.78	.	organ	1E 1g 1b
=81	=81	=81	=81	=81	=81	=81	=81
1i	E:min	.	.	200.023	.	organ	1E 1g 1b
=82	=82	=82	=82	=82	=82	=82	=82
1i	E:min	.	.	202.266	.	organ	1E 1g 1b
=83	=83	=83	=83	=83	=83	=83	=83
1i	E:min	.	.	204.509	.	organ	1E 1g 1b
=84	=84	=84	=84	=84	=84	=84	=84
1i	E:min	.	.	206.752	.	organ	1E 1g 1b
=85	=85	=85	=85	=85	=85	=85	=85
1i	E:min	.	.	208.994	.	organ	1E 1g 1b
=86	=86	=86	=86	=86	=86	=86	=86
1i	E:min	.	.	211.237	.	organ	1E 1g 1b
=87	=87	=87	=87	=87	=87	=87	=87
1i	E:min	.	.	213.48	.	organ	1E 1g 1b
=88	=88	=88	=88	=88	=88	=88	=88
1i	E:min	.	.	215.723	.	organ	1E 1g 1b
=89	=89	=89	=89	=89	=89	=89	=89
1i	E:min	.	.	217.966	.	organ	1E 1g 1b
=90	=90	=90	=90	=90	=90	=90	=90
1i	E:min	.	.	220.209	.	organ	1E 1g 1b
=91	=91	=91	=91	=91	=91	=91	=91
1i	E:min	.	.	222.452	.	organ	1E 1g 1b
=92	=92	=92	=92	=92	=92	=92	=92
1i	E:min	.	.	224.695	.	organ	1E 1g 1b
=93	=93	=93	=93	=93	=93	=93	=93
1i	E:min	.	.	226.938	.	organ	1E 1g 1b
=94	=94	=94	=94	=94	=94	=94	=94
1i	E:min	.	.	229.181	.	organ	1E 1g 1b
=95	=95	=95	=95	=95	=95	=95	=95
1i	E:min	.	.	231.424	.	organ	1E 1g 1b
=96	=96	=96	=96	=96	=96	=96	=96
1i	E:min	.	.	233.667	.	organ	1E 1g 1b
=97	=97	=97	=97	=97	=97	=97	=97
1i	E:min	.	.	235.91	.	organ	1E 1g 1b
=98	=98	=98	=98	=98	=98	=98	=98
1i	E:min	.	.	238.153	.	organ	1E 1g 1b
=99	=99	=99	=99	=99	=99	=99	=99
1i	E:min	.	.	240.396	.	organ	1E 1g 1b
=100	=100	=100	=100	=100	=100	=100	=100
1i	E:min	.	.	242.639	.	organ	1E 1g 1b
=101	=101	=101	=101	=101	=101	=101	=101
1i	E:min	.	.	244.882	.	organ	1E 1g 1b
=102	=102	=102	=102	=102	=102	=102	=102
1i	E:min	.	.	247.125	.	organ	1E 1g 1b
=103	=103	=103	=103	=103	=103	=103	=103
1i	E:min	.	.	249.368	.	organ	1E 1g 1b
=104	=104	=104	=104	=104	=104	=104	=104
1i	E:min	.	.	251.611	.	organ	1E 1g 1b
=105	=105	=105	=105	=105	=105	=105	=105
1i	E:min	.	.	253.853	.	organ	1E 1g 1b
=106	=106	=106	=106	=106	=106	=106	=106
1i	E:min	.	.	256.096	.	organ	1E 1g 1b
=107	=107	=107	=107	=107	=107	=107	=107
1i	E:min	.	.	258.339	.	organ	1E 1g 1b
=108	=108	=108	=108	=108	=108	=108	=108
1i	E:min	.	.	260.582	.	organ	1E 1g 1b
=109	=109	=109	=109	=109	=109	=109	=109
1i	E:min	.	.	262.825	.	organ	1E 1g 1b
=110	=110	=110	=110	=110	=110	=110	=110
1i	E:min	.	.	265.068	.	organ	1E 1g 1b
=111	=111	=111	=111	=111	=111	=111	=111
1i	E:min	.	.	267.311	.	organ	1E 1g 1b
=112	=112	=112	=112	=112	=112	=112	=112
2.i	E:min	.	.	269.554	newline	keyboard	1E 1g 1b
4-VIIe	D:maj/2	.	.	271.376	.	keyboard	4D 4f# 4a
=113	=113	=113	=113	=113	=113	=113	=113
2.i	E:min	.	.	271.983	.	keyboard	1E 1g 1b
4-VIIe	D:maj/2	.	.	273.805	.	keyboard	4D 4f# 4a
=114	=114	=114	=114	=114	=114	=114	=114
2.i	E:min	.	.	274.412	.	keyboard	1E 1g 1b
4-VIIe	D:maj/2	.	.	276.234	.	keyboard	4D 4f# 4a
=115	=115	=115	=115	=115	=115	=115	=115
1i	E:min	.	.	276.842	.	keyboard	1E 1g 1b
1r;	N	.	.	279.271	.	r	1r;
1r;	N	.	.	280.408	.	r	1r;
=116	=116	=116	=116	=116	=116	=116	=116
*>Letter>A	*>Letter>A	*>Letter>A	*>Letter>A	*>Letter>A	*>Letter>A	*>Letter>A	*>Letter>A
*>Label>Interlude	*>Label>Interlude	*>Label>Interlude	*>Label>Interlude	*>Label>Interlude	*>Label>Interlude	*>Label>Interlude	*>Label>Interlude
2i	E:min	.	.	281.546	newline	.	1E 1g 1b
2iid	F#:min/b7	.	.	282.735	.	.	2f# 2a 2cc#
=117	=117	=117	=117	=117	=117	=117	=117
2-IIIg	G:maj/6	.	.	283.925	.	.	1G- 1b- 1dd-
2iid	F#:min/b7	.	.	285.115	.	.	2f# 2a 2cc#
=118	=118	=118	=118	=118	=118	=118	=118
2i	E:min	.	.	286.304	.	.	1E 1g 1b
2iid	F#:min/b7	.	.	287.494	.	.	2f# 2a 2cc#
=119	=119	=119	=119	=119	=119	=119	=119
2-IIIg	G:maj/6	.	.	288.684	.	.	1G- 1b- 1dd-
2iid	F#:min/b7	.	.	289.874	.	.	2f# 2a 2cc#
=120	=120	=120	=120	=120	=120	=120	=120
2i	E:min	.	.	291.063	.	.	1E 1g 1b
2iid	F#:min/b7	.	.	292.253	.	.	2f# 2a 2cc#
=121	=121	=121	=121	=121	=121	=121	=121
2-IIIg	G:maj/6	.	.	293.443	.	.	1G- 1b- 1dd-
2iid	F#:min/b7	.	.	294.632	.	.	2f# 2a 2cc#
=122	=122	=122	=122	=122	=122	=122	=122
2i	E:min	.	.	295.822	.	.	1E 1g 1b
2iid	F#:min/b7	.	.	297.012	.	.	2f# 2a 2cc#
=123	=123	=123	=123	=123	=123	=123	=123
2-IIIg	G:maj/6	.	.	298.202	.	.	1G- 1b- 1dd-
2iid	F#:min/b7	.	.	299.391	.	.	2f# 2a 2cc#
=124	=124	=124	=124	=124	=124	=124	=124
*>Letter>A	*>Letter>A	*>Letter>A	*>Letter>A	*>Letter>A	*>Letter>A	*>Letter>A	*>Letter>A
*>Label>Chorus	*>Label>Chorus	*>Label>Chorus	*>Label>Chorus	*>Label>Chorus	*>Label>Chorus	*>Label>Chorus	*>Label>Chorus
2i	E:min	Rid-	.	300.581	newline	voice	2E 2g 2b
.	.	-ers	.	.	.	.	.
.	.	on	.	.	.	.	.
.	.	the	.	.	.	.	.
2iid	F#:min/b7	storm	A	301.769	.	voice	2f# 2a 2cc#
=125	=125	=125	=125	=125	=125	=125	=125
2-IIIg	G:maj/6	.	.	302.956	.	voice	1G- 1b- 1dd-
2iid	F#:min/b7	.	.	304.144	.	voice	2f# 2a 2cc#
=126	=126	=126	=126	=126	=126	=126	=126
2i	E:min	Rid-	.	305.331	.	voice	2E 2g 2b
.	.	-ers	.	.	.	.	.
.	.	on	.	.	.	.	.
.	.	the	.	.	.	.	.
2iid	F#:min/b7	storm	A	306.519	.	voice	2f# 2a 2cc#
.	.	.	.	.	.	.	.
=127	=127	=127	=127	=127	=127	=127	=127
2-IIIg	G:maj/6	.	.	307.707	.	voice	2G- 2b- 2dd-
2iid	F#:min/b7	.	.	308.894	.	voice	2f# 2a 2cc#
.	.	.	.	.	.	.	.
.	.	In-	.	.	.	.	.
=128	=128	=128	=128	=128	=128	=128	=128
2iv	A:min	-to	.	310.082	newline	voice	2A 2cc 2ee
.	.	this	.	.	.	.	.
.	.	house	.	.	.	.	.
.	.	we're	.	.	.	.	.
2vd	B:min/b7	born	A	311.286	.	voice	2b 2dd 2ff#
=129	=129	=129	=129	=129	=129	=129	=129
2-VIg	C:maj/6	.	.	312.49	.	voice	2C- 2e- 2g-
2-VIIc	D:maj/5	.	.	313.694	.	voice	2d 2f# 2A
.	.	.	.	.	.	.	.
.	.	In-	.	.	.	.	.
=130	=130	=130	=130	=130	=130	=130	=130
2i	E:min	-to	.	314.898	newline	voice	2E 2g 2b
.	.	this	.	.	.	.	.
.	.	world	.	.	.	.	.
.	.	we're	.	.	.	.	.
2iid	F#:min/b7	thrown	B	316.054	.	voice	2f# 2a 2cc#
=131	=131	=131	=131	=131	=131	=131	=131
2-IIIg	G:maj/6	.	.	317.21	.	voice	2.G- 2.b- 2.dd-
2iid	F#:min/b7	.	.	318.366	.	voice	4f# 4a 4cc#
.	.	Like	.	.	.	.	.
.	.	a	.	.	.	.	.
=132	=132	=132	=132	=132	=132	=132	=132
4-III7c	G:maj7/5	dog	.	319.522	newline	voice	4g- 4b- 4D- 4f#
.	.	with-	.	.	.	.	.
2.-VII	D:maj	-out	.	320.125	.	voice	2.D 2.f# 2.a
.	.	a	.	.	.	.	.
.	.	bone	B	.	.	.	.
.	.	an	.	.	.	.	.
=133	=133	=133	=133	=133	=133	=133	=133
4-VII	D:maj	ac-	.	321.934	.	voice	4D 4f# 4a
.	.	-tor	.	.	.	.	.
2.-VI	C:maj	out	.	322.537	.	voice	2.C- 2.e- 2.g-
.	.	on	.	.	.	.	.
.	.	loan	B	.	.	.	.
.	.	.	.	.	.	.	.
=134	=134	=134	=134	=134	=134	=134	=134
2i	E:min	Rid-	.	324.347	newline	voice	2E 2g 2b
.	.	-ers	.	.	.	.	.
.	.	on	.	.	.	.	.
.	.	the	.	.	.	.	.
2iid	F#:min/b7	storm	A	325.551	.	voice	2f# 2a 2cc#
=135	=135	=135	=135	=135	=135	=135	=135
2-IIIg	G:maj/6	.	.	326.755	.	voice	1G- 1b- 1dd-
2iid	F#:min/b7	.	.	327.96	.	voice	2f# 2a 2cc#
=136	=136	=136	=136	=136	=136	=136	=136
*>Letter>B	*>Letter>B	*>Letter>B	*>Letter>B	*>Letter>B	*>Letter>B	*>Letter>B	*>Letter>B
*>Label>Outro	*>Label>Outro	*>Label>Outro	*>Label>Outro	*>Label>Outro	*>Label>Outro	*>Label>Outro	*>Label>Outro
1i	E:min	.	.	329.164	newline	organ	1E 1g 1b
=137	=137	=137	=137	=137	=137	=137	=137
1i	E:min	.	.	331.48	.	organ	1E 1g 1b
=138	=138	=138	=138	=138	=138	=138	=138
1i	E:min	.	.	333.797	.	organ	1E 1g 1b
=139	=139	=139	=139	=139	=139	=139	=139
1i	E:min	.	.	336.113	.	organ	1E 1g 1b
=140	=140	=140	=140	=140	=140	=140	=140
1i	E:min	.	.	338.429	.	organ	1E 1g 1b
=141	=141	=141	=141	=141	=141	=141	=141
1i	E:min	.	.	340.745	.	organ	1E 1g 1b
=142	=142	=142	=142	=142	=142	=142	=142
1i	E:min	.	.	343.061	.	organ	1E 1g 1b
=143	=143	=143	=143	=143	=143	=143	=143
1i	E:min	.	.	345.377	.	organ	1E 1g 1b
=144	=144	=144	=144	=144	=144	=144	=144
1i	E:min	Rid-	.	347.694	newline	voice	1E 1g 1b
.	.	-ers	.	.	.	.	.
.	.	on	.	.	.	.	.
.	.	the	.	.	.	.	.
.	.	storm	A	.	.	.	.
=145	=145	=145	=145	=145	=145	=145	=145
1i	E:min	_	.	350.002	.	voice	1E 1g 1b
.	.	.	.	.	.	.	.
=146	=146	=146	=146	=146	=146	=146	=146
1i	E:min	Rid-	.	352.311	.	voice	1E 1g 1b
.	.	-ers	.	.	.	.	.
.	.	on	.	.	.	.	.
.	.	the	.	.	.	.	.
.	.	storm	A	.	.	.	.
=147	=147	=147	=147	=147	=147	=147	=147
1i	E:min	_	.	354.619	.	voice	1E 1g 1b
.	.	.	.	.	.	.	.
=148	=148	=148	=148	=148	=148	=148	=148
1i	E:min	Rid-	.	356.928	.	voice	1E 1g 1b
.	.	-ers	.	.	.	.	.
.	.	on	.	.	.	.	.
.	.	the	.	.	.	.	.
.	.	storm	A	.	.	.	.
=149	=149	=149	=149	=149	=149	=149	=149
1i	E:min	_	.	359.236	.	voice	1E 1g 1b
.	.	.	.	.	.	.	.
.	.	.	.	.	.	.	.
=150	=150	=150	=150	=150	=150	=150	=150
1i	E:min	Rid-	.	361.545	.	voice	1E 1g 1b
.	.	-ers	.	.	.	.	.
.	.	on	.	.	.	.	.
.	.	the	.	.	.	.	.
.	.	storm	A	.	.	.	.
=151	=151	=151	=151	=151	=151	=151	=151
1i	E:min	_	.	363.853	.	voice	1E 1g 1b
.	.	.	.	.	.	.	.
.	.	.	.	.	.	.	.
=152	=152	=152	=152	=152	=152	=152	=152
1i	E:min	.	.	366.162	newline	organ	1E 1g 1b
=153	=153	=153	=153	=153	=153	=153	=153
1i	E:min	.	.	368.494	.	organ	1E 1g 1b
=154	=154	=154	=154	=154	=154	=154	=154
1i	E:min	.	.	370.827	.	organ	1E 1g 1b
=155	=155	=155	=155	=155	=155	=155	=155
1i	E:min	.	.	373.159	.	organ	1E 1g 1b
=156	=156	=156	=156	=156	=156	=156	=156
1i	E:min	.	.	375.491	newline	fadeout	1E 1g 1b
=157	=157	=157	=157	=157	=157	=157	=157
1i	E:min	.	.	377.741	.	fadeout	1E 1g 1b
=158	=158	=158	=158	=158	=158	=158	=158
1i	E:min	.	.	379.991	.	fadeout	1E 1g 1b
=159	=159	=159	=159	=159	=159	=159	=159
1i	E:min	.	.	382.241	.	fadeout	1E 1g 1b
=160	=160	=160	=160	=160	=160	=160	=160
1i	E:min	.	.	384.49	newline	fadeout	1E 1g 1b
=161	=161	=161	=161	=161	=161	=161	=161
1i	E:min	.	.	385.682	.	fadeout	1E 1g 1b
=162	=162	=162	=162	=162	=162	=162	=162
1i	E:min	.	.	386.874	.	fadeout	1E 1g 1b
=163	=163	=163	=163	=163	=163	=163	=163
1i	E:min	.	.	388.065	.	fadeout	1E 1g 1b
=164	=164	=164	=164	=164	=164	=164	=164
1i	E:min	.	.	389.257	newline	organ	1E 1g 1b
=165	=165	=165	=165	=165	=165	=165	=165
1i	E:min	.	.	391.197	.	organ	1E 1g 1b
=166	=166	=166	=166	=166	=166	=166	=166
1i	E:min	.	.	393.137	.	organ	1E 1g 1b
=167	=167	=167	=167	=167	=167	=167	=167
1i	E:min	.	.	395.077	.	organ	1E 1g 1b
=168	=168	=168	=168	=168	=168	=168	=168
1i	E:min	.	.	397.017	.	organ	1E 1g 1b
=169	=169	=169	=169	=169	=169	=169	=169
1i	E:min	.	.	398.957	.	organ	1E 1g 1b
=170	=170	=170	=170	=170	=170	=170	=170
1i	E:min	.	.	400.897	.	organ	1E 1g 1b
=171	=171	=171	=171	=171	=171	=171	=171
1i	E:min	.	.	402.837	.	organ	1E 1g 1b
1r;	N	.	.	404.777	.	r	1r;
1r;	N	.	.	428.38	.	r	1r;
1r;	N	.	.	430.681	.	r	1r;
*-	*-	*-	*-	*-	*-	*-	*-
!!!BillboardChartDate: 1971/07/24
!!!BillboardPeak: 14
!!!BillboardWeeksOnChart: 12
!!!COC: The Doors
!!!ENC: Nathaniel Condit-Schultz
!!!EST: Awating manual error checking and editing.
!!!OTL: Riders On The Storm
!!!RDF**harte: Chris Harte's syntax, used by MIREX
!!!RDF**harmony: **recip + pitch class of root + harmonic quality
!!!RDF**leadinstrument: original McGill primary instrumentation annotation
!!!RDF**phrase: newline = linebreak in original McGill transcription
!!!RDF**timestamp: McGill audio timestamp in seconds
!!!RDT: 2017/01/12/
!!!SampleActualRank: 39
!!!SampleID#: 0945
!!!SampleTargetRank: 41
!!!MBID: 96734374-9968-40e2-ae97-a7632793dd82
